X: 1
T: West Kerry
M: 2/4
L: 1/8
R: polka
K: Dmaj
|:d|eA BA|eA BA|G2 A>Bd2|G2 AB>d2|eA BA|eA BA|G2 A>Bd|B A A:|
|:f|a2 g f|a2 g f|d BGA|B cde|a2 g f|a2 g f|d BgBB|AA:|
